X:1033
L:1/8
M:4/4
K:G
 AB d2 e4 | edBG g2 fe | AB d2 effe | d2 dB GABd | AB d2 e4 | edBG g2 fe | AB d2 effe | 
 d2 dB GABd || e2 a2 a2 ab | agef g2 ed | e2 a2 abaf | g2 fe defg | e2 a2 a2 ab | agef g2 ed | 
 e2 a2 abaf | g4 gfed ||

